X:1
T:Title
%%score { ( 1 3 ) | 2 }
L:1/8
M:4/4
K:C
V:1 treble nm="Grand Piano"
V:3 treble 
V:2 bass 
V:1
 z4 z2[Q:1/4=100] [CE]>[DF] | [EG]2 [Ec]2 [Fc]2 [CFA]2 | [EG]6 [DEG]>[CFA] | %3
 [CEG] [CEG]3 [B,DF]3 [B,DF] |[M:3/4] [G,CE]6 |[M:1/4] [G,CE]>[G,DF] |[M:4/4] [CEG]2 [Ec]2 c2 A2 | %7
 G6 [GB]>[Gc] | [^Fd]2 A2 B2 c2 |[M:3/4] d6 |[M:1/4] e>d |[M:4/4] [Ec]4 [EG]2 z2 | [FB]4 [FA]2 z2 | %13
 [^Fd]2 A2 B2 c2 |[M:3/4] d6 |[M:1/4] B>A |[M:4/4] [EG]2 [Ec]2 [Ge]2 [Gc]2 | A4 c2 B>A | %18
 G3 A [B,FG]2 [B,Fd]2 |[M:3/4] [Ec]6 |] %20
V:2
 z4 z2 [C,G,]>[C,G,] | [C,C]2 [C,G,]2 [F,A,]2 A,2 | C6 C,>C, | G, G,3 G,,3 G,, |[M:3/4] C,6 | %5
[M:1/4] C,>C, |[M:4/4] C,2 [C,G,]2[K:treble] [F,A,F]2 [A,CF]2 | [CE]6[K:bass] [F,D]>[E,C] | %8
 [D,A,]2[K:treble] [CD^F]2 [B,DG]2 [A,DF]2 |[M:3/4] [G,B,F]6 |[M:1/4] [G,B,G]>[G,B,F] | %11
[M:4/4][K:bass] [C,G,]C,C,C, C,C, C,>E, | F,F,F,F, F,F, F,>E, | %13
 [D,A,]2[K:treble] [CD^F]2 [B,DG]2 [A,DF]2 |[M:3/4] [G,B,F]6 |[M:1/4] [G,D]>[G,B,F] | %16
[M:4/4][K:bass] [C,C]2 [C,G,]2 [C,C]2 [E,C]2 | [F,CF]4 [F,A,F]2 [^F,C_E]>[F,CE] | %18
 [G,CE]3 [G,CE] G,,2 G,,2 |[M:3/4] [C,G,]6 |] %20
V:3
 x8 | x8 | x8 | x8 |[M:3/4] x6 |[M:1/4] x2 |[M:4/4] x8 | x8 | x8 |[M:3/4] x6 |[M:1/4] x2 | %11
[M:4/4] z G,G,G, CC [CEc]>[CGB] | CCCC CC [DGB]>[CGc] | x8 |[M:3/4] x6 |[M:1/4] x2 |[M:4/4] x8 | %17
 x8 | x8 |[M:3/4] x6 |] %20

